X:231
T:Old Grey Gander (reel), The 
B:CRE2.222 (Seanghandal Liath)
F:file ID: cre.2/231old_gg
N:First note of measure 1 is misprinted as D in source.
M:C
R:reel
%Q:180
K:Am
AG||!segno!EAAB c2BA|BAGB dBAG|EAAB cBcd|gedB (3cBA BG|
EAAB c2BA|BAGB dBAG|EAAB c3A|BdgB BAA2||
a2a2 aged|(3Bcd e^f g2ed|eaaa age^f|gedB BAA2|
agab aged|(3Bcd e^f g2fg|a^fge fdef|gedB BAAG "_DS"||

%%%

